X:52
T:Sakkijarven Polkka
M:2/4
L:1/16
Q:1/4=108
R:polka
K:Em
|: (3EGB | "Em" e2(3BcB A2G2 | "Am" (3GAG F2F2 (3FGA |
"B7" B2 (3ABA G2F2 | "Em" (3FGF E2E2 (3EGB | !
"Em" e2 (3BcB A2G2 | "Am" (3GAG F2F2 (3FGA |
"B7" B2 (3B^AB ^c2^d2 | "Em" e2 z2 "fine" [E2G2B2e2] :| !
|: z B | "Em" B2e2 e^def | "B7" (3efe ^d2 d3B |
B2f2 fefg | "Em" (3fgf e2 e3B | !
B2e2 e^def | "B7" (3efe ^d2 d2(3dfa |
b2 (3aba g2f2 | "Em" e2 z2 e2 :| !
|: EG | "Em" B2BG E2EG | B2BG E2EG | B2B2 c3B |
"Am" ABAG "B7" F2FG | A2AG F2FG | !
A2AG F2FG | A2A2 B3A | GAGF "Em" E2EG | B2BG E2EG |
B2BG E2EG | B2B2 e3d | !
"Am" cdcB A2AB | c2cB AcBA | "Em" B2BG E2EG |
"B7" B2(3B^AB ^c2^d2 | "Em" e2 z2 e2 :| !
|: B,2 | "Em" E^DEF GFG^G | "Am" A^GAB cBAc |
"B7" BB,^DF BAGF | "Em" E^DEF GFE^D | !
E^DEF GFG^G | "Am" A^GAB cBAc |
"B7" BB,^DF BAGF | "Em" E2 "DC al fine" z2 E2 :|
